Papirus/24x24/panel/transmission-panel.svg

<svg xmlns="http://www.w3.org/2000/svg" width="24" height="24" version="1.1">
 <defs>
  <style id="current-color-scheme" type="text/css">
   .ColorScheme-Text { color:#5c616c; } .ColorScheme-Highlight { color:#5294e2; } .ColorScheme-ButtonBackground { color:#d3dae3; }
  </style>
 </defs>
 <path style="fill:currentColor" class="ColorScheme-ButtonBackground" d="m 5.999992,4 c -0.5540001,0 -1,0.446 -1,1 v 14 c 0,0.554 0.4459999,1 1,1 h 12.000016 c 0.554,0 1,-0.446 1,-1 V 5 c 0,-0.554 -0.446,-1 -1,-1 z m 1.666016,2 h 8.667984 c 0.369334,0 0.666016,0.3345 0.666016,0.75 v 10.5 c 0,0.4155 -0.296682,0.75 -0.666016,0.75 H 7.666008 C 7.296675,18 6.999992,17.6655 6.999992,17.25 V 6.75 C 6.999992,6.3345 7.296675,6 7.666008,6 Z M 12,7 9,10 h 2 v 4 H 9 l 3,3 3,-3 h -2 v -4 h 2 z"/>
</svg>

<svg xmlns="http://www.w3.org/2000/svg" width="24" height="24" version="1.1">
 <defs>
  <style id="current-color-scheme" type="text/css">
   .ColorScheme-Text { color:#5c616c; } .ColorScheme-Highlight { color:#5294e2; } .ColorScheme-ButtonBackground { color:#d3dae3; }
  </style>
 </defs>
 <path style="fill:currentColor" d="M 6,4 C 5.446,4 5,4.446 5,5 V 19 C 5,19.554 5.446,20 6,20 H 18 C 18.554,20 19,19.554 19,19 V 5 C 19,4.446 18.554,4 18,4 Z M 8,6 H 16 C 16.554,6 17,6.446 17,7 V 17 C 17,17.554 16.554,18 16,18 H 8 C 7.446,18 7,17.554 7,17 V 7 C 7,6.446 7.446,6 8,6 Z M 12,7 9,10 H 11 V 14 H 9 L 12,17 15,14 H 13 V 10 H 15 Z" class="ColorScheme-ButtonBackground"/>
</svg>
